X:711
T:Mundesse
C:John Playford, 1651
N:Also for the dance "A Retiring Fellow" by Garo Roodman
M:2/2
R:Reel
L:1/8
S:Colin Hume's website,  colinhume.com  - chords can also be printed below the stave.
Q:1/2=100
K:G
P:A
|: "G"G2GG G2A2 | "/"B3A G2d2 | "Am"c3B "D7"ABcd | "G"B3A G2G2 |\
"D"A3G A2B2 | "Am"c3d c2B2 | "D7"A2G2 G2F2 | "G"G8 :|
P:B
|: "G"G3A BABc | "D"d3e d2ef | "Em"g2f2 "A7"edef |1 "D"d8 :|2 "D"d6 ||
P:C
|: f2 | "C"g2f2 g2e2 | "G"d6 ef | "C"g2f2 g2e2 | "G"d6 e2 |\
"A7"f2g2 f2g2 | "D"d6 c2 | "G"B2AG "D7"FGAB | "G"G6 :|
P:D
|: G2 | "G"B3c d2B2 | "C"e3d c2B2 | "D7"A2G2 G2F2 | "G"G6 :|

